X:1
T:Title
%%score { ( 1 4 ) | ( 2 3 ) }
L:1/8
Q:1/4=126
M:4/4
K:D
V:1 treble nm="Grand Piano"
V:4 treble 
V:2 bass 
V:3 bass 
V:1
 A2 A2 A2 A2 | [DF]2 [A,DFA]2 [Fd]2 [Gc]>B | [FA]4 z4 | A2 E>F [EG]2 [GB]2 | %4
w: Chas.~H.~Gabriel,~Jr. * * *||||
 [FA]2 [DF]>G [FA]2 A2 | [DF]2 [A,DFA]2 [Fd]2 [Gc]>B | [FA]4 z4 | c2 E>c B2 E>B | [CA]6 z2 | %9
w: |||||
 [EG]2 [A,CFA]2 [Ac]BAG | [DF]2 [A,DFA]2 [Fd]2 [A,DFA]2 | [EG]2 [A,CFA]2 [Ac]BAG | %12
w: |||
 [DF]2 [A,DFA]2 [Fd]2 [A,DFA]2 | D2- [D-Bd]2 [D-Be]2 [D-Ac][D-B] | [DFA]2 [E^A]2 [DB]2 [^DF]2 | %15
w: |||
 G2 AB F2 [CE]2 | D4[K:bass] z4 | [DF]4 z4 | z4 [^CG]4 | E2 [DF]2 [EG]2 [Gc]2 | [DFB]4 [DFA]4 | %21
w: ||||||
 [FA]4 z4 | z4 c4 | [^Ge]2 [Fd]2 c2 B2 | A2 B2 A2 G2 | F4 z4 | z4 [^CG]4 | ^G2 G2 G2 G2 | %28
w: |||||||
[M:3/4] A4 z2 |[M:1/4] A2 |[M:4/4] B2 [Bd]2 .[Be]2 [Ac]B | [FA]2 [E^A]2 [DB]2 [^DF]2 | %32
w: ||||
 G2 AB F2 [CE]2 |[M:3/4] D6[K:bass] |] %34
w: ||
V:2
 A,2 A,2 A,2 A,2 | z4 z2[K:treble] [G,B,D]2 | D,2 [F,A,]2 [D,D]2 [F,A,D]2 | z2 C2 z4 | %4
 z2 [F,A,]2 z4 | z4 z2[K:treble] [G,B,D]2 | D,2 F,2 D,2 ^D,2 | [E,A,E]2 C>E [E,^G,D]2 D>D | %8
 A,2 E,2 A,,2 F2 | E,2 G,2 z[K:treble] GFE | D,2 F,2 D,2 F,2 | E,2 G,2 z[K:treble] GFE | %12
 D,2 F,2 D,2 F,2 | G,2 G,2 z[K:treble] d z G | D,2 [C,F,]2 [B,,F,]2 [B,,B,]2 | %15
 [E,B,E]2 [F,D][G,D] [A,D]2 [A,,G,]2 | [D,F,]2 A,,2 (3z A,B, (3CDE | D,2 A,,2 [D,A,D]2 A,,2 | %18
 [E,A,]2 z2 z4 | [E,A,C]2 [A,,A,]2 [C,A,]2 [A,,A,]2 | D,2 A,,2 D,2 F,A, | ^D,2 D,2 D,2 D,2 | %22
 C>B, C>D E2- [E,E]2 | [E,B,]2 [E,B,]2 [E,^G,E]2 [E,G,D]2 | %24
 [A,C]2 [G,B,G]2[K:bass] [F,A,F]2 [E,A,E]2 | D2- [A,,D]2 [D,A,D]2 A,,2 | [E,A,]2 z2 z4 | %27
 [=F,B,D]2 [F,B,D]2 [F,B,D]2 [D,B,D]2 |[M:3/4] [F,A,]2 z2 z2 |[M:1/4] [F,D]2 | %30
[M:4/4][K:treble] [G,G]2 z2 G,2 G,2 | z8[K:bass] | [E,B,E]2 [F,D][G,D] [A,D]2 [A,,G,]2 | %33
[M:3/4] [D,F,A,]2 [A,,F,]2 D,,2 |] %34
V:3
 x8 | D,2 F,2 D,2[K:treble] z z/ G/ | x8 | [E,C]2 [G,A,]->[G,A,D] A,,2 [G,A,C]2 | %4
 D,2 z z/ E/ D,2 A,2 | D,2 F,2 D,2[K:treble] z z/ G/ | x8 | x8 | x8 | z4 A,,2[K:treble] [G,A,C]2 | %10
 x8 | z4 A,,2[K:treble] [G,A,C]2 | x8 | z4 G,2[K:treble] G,2 | x8 | x8 | z4 D,,2 z2 | x8 | %18
 C>=C [A,,A,]2 [E,A,]2 A,,2 | x8 | x8 | x8 | [E,A,]2 [E,A,]2 [E,A,]2 z2 | x8 | x4[K:bass] x4 | %25
 [D,A,]2 z2 z4 | C>=C [A,,A,]2 [E,A,]2 A,,2 | x8 |[M:3/4] D2- [D,F,D]2 [E,G,]2 |[M:1/4] x2 | %30
[M:4/4][K:treble] D2- [G,D-]2 D-[D-d]D-[D-G] | [D,D]2[K:bass] [C,F,]2 [B,,F,]2 [B,,B,]2 | x8 | %33
[M:3/4] x6 |] %34
V:4
 x8 | x8 | z2 D2 F2 F2 | x8 | x8 | x8 | z2 [A,D]2 [FB]2 [F=c]2 | x8 | z2 A,2 A,2 A2 | x8 | x8 | %11
 x8 | x8 | [GB]2 z2 z4 | x8 | x8 | z2[K:bass] F,2 [F,D]2 z2 | A,2 A,2 F2 A,2 | %18
 G>F [CG]>[=CF] z2 A,2 | x8 | x8 | =C2 C2 [CFA]2 C2 | A>^G A>B z2 A,2 | x8 | x8 | z2 A,2 F2 A,2 | %26
 G>F [CG]>[=CF] z2 A,2 | x8 |[M:3/4] z2 A,2 A,2 |[M:1/4] x2 |[M:4/4] x8 | x8 | x8 | %33
[M:3/4] z2[K:bass] A,2 [F,A,]2 |] %34

